X: 1056
T: Hicazkâr Sazsemâîsi
C: Tanburî Cemil Bey
O: Turkey
F: http://compmusic.upf.edu/node/140
N: hicazkar--sazsemaisi--aksaksemai----tanburi_cemil_bey
N: makam= hicazkar
N: form= sazsemaisi
N: usul= aksaksemai = 10/8
M: 10/8
L: 1/16
K: C _1/4B _7/8e _7/8A ^f
Q: 1/4=160
%%MIDI tuningsystem comma53
g4 gfg3=a_ba gfg4ab  | =agfe d2a2 gffe edd6  | 
w:  1. HANE  |   | 
d3=e cdBc =AGB2 c2d2 _7/8edc2  | d2ed =aggf2efe ed{e}d4z2  | 
w:   |   | 
cd=e=f efgf efg_7/8b agga gagf  | \
w:  TESLİM  | 
=fgfg fee3dg2 g2g^f edc2  | 
w:   | 
e4 defg fede dcB4AB  | c4 Bced cBBA AGG4z2  | 
w:   |   | 
cd=e=f efgf efg_7/8b agga gagf  | \
w:  TESLİM  | 
=fgfg fee3dg2 g2g^f edc2  | 
w:   | 
e4 defg fede dcB4AB  | c4 Bced cBBA AGG4z2  | 
w:   |   | 
G4 dedc BABc dBc2 d2e2  | gfed cdB3cBA AGG4z2  | 
w:  2. HANE  |   | 
G4 dedc BAB2 c2d2 e2c2  | d2e2 =ag{a}gf2efe ed{e}d4z2  | 
w:   |   | 
cd=e=f efgf efg_7/8b agga gagf  | \
w:  TESLİM  | 
=fgfg fee3dg2 g2g^f edc2  | 
w:   | 
e4 defg fede dcB4AB  | c4 Bced cBBA AGG4z2  | 
w:   |   | 
cd=e=f efgf efg_7/8b agga gagf  | \
w:  TESLİM  | 
=fgfg fee3dg2 g2g^f edc2  | 
w:   | 
e4 defg fede dcB4AB  | c4 Bced cBBA AGG4z2  | 
w:   |   | 
gagf ede=f e2fg fag6  | b2c'2 d'2e'd' c'd'_b2 _a2g2 =f2_1/4e2  | 
w:  3. HANE  |   | 
_b4 b=aa2 g2g2 bag=f _1/4edc2  | d2e2 g2=f3_1/4efe edd4z2  | 
w:   |   | 
cd=e=f efgf efg_7/8b agga gagf  | \
w:  TESLİM  | 
=fgfg fee3dg2 g2g^f edc2  | 
w:   | 
e4 defg fede dcB4AB  | c4 Bced cBBA AGG4z2  | 
w:   |   | 
cd=e=f efgf efg_7/8b agga gagf  | \
w:  TESLİM  | 
=fgfg fee3dg2 g2g^f edc2  | 
w:   | 
e4 defg fede dcB4AB  | c4 Bced cBBA AGG4z2  | 
w:   |   | 
z24  | (3g2f2a2g4e3dc2e2d8  | (3B2c2d2(3e2d2c2B3A(3B2A2G2G8  | 
w:  |  4. HANE  |   | 
G3AB3cd3Bc3de3cd3e  | f3de3fg3fe3fg8  | 
w:   |   | 
(3g2f2a2g4e3dc2e2d8  | (3B2c2d2(3e2d2c2B3A(3B2A2G2G8  | 
w:   |   | 
z14  | =f2g2g2g=agfg2a2  | g2=f2_1/4e2dedcd2e2  | \
w:  |   |   | 
=f2g2=a2_bagagff_1/4e  | 
w:   | 
=f4f2f4fgf_1/4e  | _1/4e4e2e4_e2d2  | \
w:   |   | 
gfedcBc4z4  | =f2g2g2g=agf_1/4e^de2  | 
w:   |   | 
=f4g2f_edcd2_7/8e2  | dcBAB2c3dBAAG  | \
w:   |   | 
G4G2GFEFG4  | 
w:   | 
z20  | cd=e=f efgf efg_7/8b agga gagf  | 
w:  |  TESLİM  | 
=fgfg fee3dg2 g2g^f edc2  | e4 defg fede dcB4AB  | 
w:   |   | 
c4 Bced cBBA AGG4z2  | cd=e=f efgf efg_7/8b agga gagf  | 
w:   |   | 
=fgfg fee3dg2 g2g^f edc2  | e4 defg fede dcB4AB  | 
w:   |   | 
c4 Bced cBBA AGG4z2  | |


